dist/img/socials/instagram.svg

<svg width="16" height="16" viewBox="0 0 16 16" fill="none" xmlns="http://www.w3.org/2000/svg">
<path fill-rule="evenodd" clip-rule="evenodd" d="M4.70172 0.0482874C3.8501 0.0870031 3.26863 0.222151 2.75974 0.420015C2.23357 0.624308 1.78768 0.898032 1.34294 1.34276C0.897913 1.78749 0.624468 2.23351 0.420169 2.75967C0.2223 3.26869 0.0870054 3.85014 0.0482887 4.7016C0.00928629 5.55491 0 5.82721 0 8C0 10.1728 0.00928629 10.4449 0.0482887 11.2984C0.0870054 12.1499 0.2223 12.7313 0.420169 13.24C0.624468 13.7662 0.897913 14.2125 1.34294 14.6571C1.78768 15.102 2.23357 15.3754 2.75974 15.58C3.26863 15.7779 3.8501 15.913 4.70172 15.9517C5.55506 15.9907 5.82736 16 8.00007 16C10.1729 16 10.4452 15.9907 11.2986 15.9517C12.15 15.913 12.7315 15.7779 13.2407 15.58C13.7664 15.3754 14.2127 15.102 14.6575 14.6571C15.1022 14.2125 15.3755 13.7662 15.5801 13.24C15.7778 12.7313 15.9133 12.1499 15.952 11.2984C15.991 10.4449 16 10.1728 16 8C16 5.82721 15.991 5.55491 15.952 4.7016C15.9133 3.85014 15.7778 3.26869 15.5801 2.75967C15.3755 2.23351 15.1022 1.78749 14.6575 1.34276C14.2127 0.898032 13.7664 0.624308 13.2407 0.420015C12.7315 0.222151 12.15 0.0870031 11.2986 0.0482874C10.4452 0.00942891 10.1729 0 8.00007 0C5.82736 0 5.55506 0.00942891 4.70172 0.0482874ZM4.76747 14.5116C3.98742 14.4761 3.56382 14.3461 3.28209 14.2364C2.9085 14.091 2.6422 13.9177 2.36218 13.6378C2.08216 13.358 1.90886 13.0915 1.76357 12.7181C1.65399 12.4362 1.52384 12.0126 1.48812 11.2326C1.44969 10.389 1.44141 10.1359 1.44141 7.99992C1.44141 5.8637 1.44969 5.61083 1.48812 4.76709C1.52384 3.9872 1.65399 3.56362 1.76357 3.28175C1.90886 2.90831 2.08216 2.64173 2.36218 2.36186C2.6422 2.08199 2.9085 1.90841 3.28209 1.76355C3.56382 1.65398 3.98742 1.52369 4.76747 1.48797C5.61095 1.44954 5.86411 1.4414 8.0001 1.4414C10.1361 1.4414 10.3891 1.44954 11.233 1.48797C12.0128 1.52369 12.4364 1.65398 12.7184 1.76355C13.0918 1.90841 13.3583 2.08199 13.6382 2.36186C13.9182 2.64173 14.0913 2.90831 14.2366 3.28175C14.3462 3.56362 14.4765 3.9872 14.5122 4.76709C14.5507 5.61083 14.5585 5.8637 14.5585 7.99992C14.5585 10.1359 14.5507 10.389 14.5122 11.2326C14.4765 12.0126 14.3462 12.4362 14.2366 12.7181C14.0913 13.0915 13.9182 13.358 13.6382 13.6378C13.3583 13.9177 13.0918 14.091 12.7184 14.2364C12.4364 14.3461 12.0128 14.4761 11.233 14.5116C10.3894 14.5503 10.1364 14.5583 8.0001 14.5583C5.86411 14.5583 5.61095 14.5503 4.76747 14.5116ZM11.3105 3.72943C11.3105 4.25945 11.7403 4.68947 12.2706 4.68947C12.8008 4.68947 13.2305 4.25945 13.2305 3.72943C13.2305 3.19913 12.8008 2.76954 12.2706 2.76954C11.7403 2.76954 11.3105 3.19913 11.3105 3.72943ZM3.8916 8.00017C3.8916 10.2691 5.731 12.1082 7.99986 12.1082C10.2689 12.1082 12.108 10.2691 12.108 8.00017C12.108 5.73124 10.2689 3.89203 7.99986 3.89203C5.731 3.89203 3.8916 5.73124 3.8916 8.00017ZM5.33398 8.00009C5.33398 6.52732 6.52777 5.33343 8.00058 5.33343C9.47339 5.33343 10.6673 6.52732 10.6673 8.00009C10.6673 9.473 9.47339 10.6668 8.00058 10.6668C6.52777 10.6668 5.33398 9.473 5.33398 8.00009Z" fill="white"/>
</svg>

<svg width="16" height="16" fill="none" xmlns="http://www.w3.org/2000/svg"><path fill-rule="evenodd" clip-rule="evenodd" d="M4.702.048C3.85.087 3.269.222 2.76.42a3.918 3.918 0 0 0-1.417.923A3.9 3.9 0 0 0 .42 2.76C.222 3.269.087 3.85.048 4.702.01 5.555 0 5.827 0 8s.01 2.445.048 3.298c.039.852.174 1.433.372 1.942.204.526.478.973.923 1.417.445.445.89.718 1.417.923.509.198 1.09.333 1.942.372C5.555 15.99 5.827 16 8 16s2.445-.01 3.299-.048c.851-.039 1.433-.174 1.942-.372a3.925 3.925 0 0 0 1.417-.923 3.91 3.91 0 0 0 .922-1.417c.198-.509.333-1.09.372-1.942.039-.853.048-1.125.048-3.298s-.009-2.445-.048-3.298c-.039-.852-.174-1.433-.372-1.942a3.923 3.923 0 0 0-.922-1.417A3.923 3.923 0 0 0 13.24.42c-.51-.198-1.09-.333-1.941-.372C10.445.01 10.173 0 8 0S5.555.01 4.702.048Zm.065 14.464c-.78-.036-1.203-.166-1.485-.276a2.482 2.482 0 0 1-.92-.598 2.479 2.479 0 0 1-.598-.92c-.11-.282-.24-.705-.276-1.485-.038-.844-.047-1.097-.047-3.233s.009-2.39.047-3.233c.036-.78.166-1.203.276-1.485a2.48 2.48 0 0 1 .598-.92c.28-.28.546-.454.92-.598.282-.11.705-.24 1.485-.276.844-.038 1.097-.047 3.233-.047s2.39.009 3.233.047c.78.036 1.203.166 1.485.276.374.144.64.318.92.598.28.28.453.546.599.92.11.282.24.705.275 1.485.039.844.046 1.097.046 3.233s-.007 2.389-.046 3.233c-.036.78-.166 1.203-.275 1.485-.146.373-.319.64-.599.92-.28.28-.546.453-.92.598-.282.11-.705.24-1.485.276-.844.038-1.097.046-3.233.046s-2.389-.008-3.233-.046ZM11.31 3.729a.96.96 0 1 0 1.92 0 .96.96 0 0 0-1.92 0ZM3.892 8a4.108 4.108 0 1 0 8.216 0 4.108 4.108 0 0 0-8.216 0Zm1.442 0a2.667 2.667 0 1 1 5.333 0 2.667 2.667 0 0 1-5.333 0Z" fill="#fff"/></svg>
